src/images/milvus_logo.svg

<svg fill="none" height="35" viewBox="0 0 148 35" width="148" xmlns="http://www.w3.org/2000/svg"><g fill="#4fc4f9"><path d="m35.2688 5.48219c-6.6189-6.64292-17.3519-6.64292-23.9708 0l-10.818369 10.85731c-.639508.6426-.639508 1.6771 0 2.3196l10.818369 10.8574c6.6189 6.6429 17.3519 6.6429 23.9708.0109 6.6296-6.6321 6.6296-17.4023 0-24.04521zm-2.558 20.85441c-4.8603 4.8787-12.7475 4.8787-17.6078 0l-7.96183-7.9824c-.46898-.4683-.46898-1.2306 0-1.7097l7.95123-7.97153c4.8602-4.87874 12.7475-4.87874 17.6077 0 4.871 4.87873 4.871 12.78493.0107 17.66363z"/><path d="m49.4444 16.3503-4.7643-4.8678c-.2878-.2941-.7675-.0218-.6715.3811.8207 3.7135.8207 7.5904 0 11.3039-.0853.4029.3943.6642.6715.3811l4.7643-4.8678c.6288-.6534.6288-1.688 0-2.3305z"/><path d="m23.9598 26.0426c4.6092 0 8.3456-3.8177 8.3456-8.5269 0-4.7093-3.7364-8.52693-8.3456-8.52693-4.6091 0-8.3455 3.81763-8.3455 8.52693 0 4.7092 3.7364 8.5269 8.3455 8.5269z"/><path d="m59.4229 16.0124c0-.9069.153-1.6887.4591-2.3454.306-.6568.7344-1.2196 1.2854-1.6887.5509-.4691 1.1936-.8131 1.9282-1.032s1.5611-.344 2.4181-.344c1.0712 0 2.02.1876 2.877.5629.8264.3753 1.5303.8756 2.0506 1.5323.5203-.6567 1.1938-1.157 2.0202-1.5323.8263-.3753 1.7751-.5629 2.8463-.5629.8571 0 1.6528.1251 2.3874.344.7345.2189 1.3773.5629 1.9282 1.032s.9794 1.0319 1.2855 1.6887c.3061.6567.4592 1.4385.4592 2.3454v8.9438h-4.3157v-7.693c0-.9381-.1835-1.5948-.5508-2.0014-.3673-.4065-.8876-.5941-1.5916-.5941-.7039 0-1.255.2501-1.7141.7192-.4285.4691-.6427 1.2196-.6427 2.2829v7.3176h-4.3155v-7.3176c0-1.032-.2143-1.7825-.6428-2.2829-.4285-.4691-.9795-.7192-1.6835-.7192-.6733 0-1.2241.1876-1.5914.5941-.398.4066-.5817 1.0633-.5817 2.0014v7.693h-4.3154z"/><path d="m84.9492 7.25615c0-.68799.2143-1.28216.6734-1.75124s1.01-.71927 1.714-.71927c.6733 0 1.2549.25019 1.714.71927s.7039 1.06325.7039 1.75124c0 .68797-.2448 1.28215-.7039 1.75123s-1.0407.68798-1.714.68798c-.6734 0-1.2549-.2189-1.714-.68798-.4285-.50036-.6734-1.06326-.6734-1.75123zm.2449 5.69145c0-.7192.2142-1.2196.6121-1.501.3979-.2815.9488-.4378 1.6222-.4378.4897 0 .9182.0625 1.3161.1876s.6427.1877.7652.2189v13.5721h-4.3156z"/><path d="m93.4883 6.72452c0-.71926.2142-1.21961.6121-1.50106s.9488-.43782 1.6222-.43782c.4897 0 .9182.06255 1.3161.18764s.6427.18763.7652.2189v19.76392h-4.3156z"/><path d="m105.7 24.9561c-.551-1.0007-1.102-2.0327-1.622-3.0959-.52-1.0633-1.01-2.064-1.438-2.9709-.429-.9068-.796-1.7199-1.072-2.3454-.275-.6567-.459-1.0632-.551-1.2508-.153-.3753-.306-.7818-.459-1.2197-.183-.469-.245-.8756-.245-1.2196 0-.5003.184-.9381.551-1.3134.368-.344.888-.5316 1.623-.5316.581 0 1.04.0625 1.408.1876.367.1251.55.1877.612.2189.306.9069.612 1.8138.979 2.7207.337.9069.673 1.7512.979 2.533.307.7818.582 1.4698.857 2.064.245.5942.429 1.0007.551 1.2509.123-.2502.276-.6568.521-1.2196.245-.5629.489-1.2197.765-1.9076.275-.688.551-1.4073.826-2.0953.276-.6879.521-1.3134.704-1.7825.123-.2814.215-.5316.368-.7818.122-.2501.306-.4378.489-.6254.184-.1876.429-.3127.674-.4066.275-.0938.612-.125.979-.125s.673.0312.979.125c.276.0626.551.1564.766.2502.214.0938.398.1877.52.2502.122.0938.214.1251.245.1564-.061.3439-.245.813-.52 1.501-.276.6567-.582 1.4385-.949 2.2829-.368.8443-.765 1.7512-1.194 2.6894-.428.9381-.857 1.845-1.255 2.7206-.398.8757-.796 1.6575-1.163 2.3767-.367.688-.643 1.2509-.826 1.6262h-4.102z"/><path d="m122.259 18.4515c0 1.9076.826 2.8458 2.51 2.8458 1.683 0 2.51-.9382 2.51-2.8458v-5.5038c0-.7193.214-1.2197.612-1.5011.398-.2815.948-.4378 1.622-.4378.49 0 .918.0625 1.316.1876s.643.1877.765.2189v7.8493c0 1.032-.184 1.9076-.52 2.6581-.337.7506-.827 1.376-1.439 1.8763-.612.5004-1.316.8757-2.173 1.1258-.826.2502-1.744.3753-2.693.3753-.98 0-1.867-.1251-2.694-.3753-.826-.2501-1.561-.6254-2.173-1.1258-.612-.5003-1.071-1.1257-1.438-1.8763-.337-.7505-.521-1.6574-.521-2.6581v-6.3169c0-.7193.215-1.2197.613-1.5011.397-.2815.948-.4378 1.622-.4378.489 0 .918.0625 1.316.1876s.643.1877.765.2189z"/><path d="m135.971 20.7032c.153.125.367.2501.704.4065s.735.3127 1.194.4378.979.2502 1.561.344c.581.0938 1.193.1564 1.836.1564.735 0 1.286-.0626 1.653-.2189.367-.1251.551-.3753.551-.7193 0-.3753-.153-.6254-.459-.7505s-.796-.2502-1.469-.344l-1.408-.1564c-.704-.0938-1.378-.2189-2.02-.4065-.643-.1876-1.225-.4378-1.714-.7818-.49-.344-.888-.7818-1.163-1.3134-.276-.5317-.429-1.1884-.429-2.0015 0-.6879.122-1.3134.367-1.8763s.612-1.0632 1.133-1.501c.52-.4378 1.193-.7818 1.989-1.0007.796-.2502 1.775-.3753 2.877-.3753 1.133 0 2.082.0625 2.908.2189s1.5.3753 2.112.688c.337.1876.612.4065.826.6567.215.2502.306.5942.306.9694 0 .2815-.061.5629-.183.7818-.123.2189-.245.4378-.398.5942s-.306.2815-.429.3753c-.122.0938-.214.1563-.245.1563-.061-.0625-.214-.1563-.428-.3127-.245-.1564-.551-.2814-.979-.4378-.398-.1251-.888-.2502-1.439-.3753s-1.194-.1563-1.928-.1563c-.796 0-1.378.0938-1.684.2814-.306.1877-.459.4378-.459.7505 0 .3128.153.5317.429.6568.275.125.704.2501 1.285.344l2.449.3439c.612.0939 1.193.219 1.744.4066s1.072.4378 1.5.7505c.429.344.796.7505 1.041 1.2509.245.5003.398 1.1258.398 1.8763 0 1.5323-.582 2.7207-1.714 3.5963-1.133.8443-2.724 1.2822-4.744 1.2822-1.041 0-1.99-.0626-2.816-.219-.827-.1563-1.5-.3127-2.112-.5003-.582-.1876-1.071-.4065-1.439-.5942-.367-.2189-.612-.3752-.765-.4691z"/></g></svg>

<svg width="148" height="35" viewBox="0 0 148 35" fill="none" xmlns="http://www.w3.org/2000/svg">
<path d="M35.2688 5.48219C28.6499 -1.16073 17.9169 -1.16073 11.298 5.48219L0.479631 16.3395C-0.159877 16.9821 -0.159877 18.0166 0.479631 18.6591L11.298 29.5165C17.9169 36.1594 28.6499 36.1594 35.2688 29.5274C41.8984 22.8953 41.8984 12.1251 35.2688 5.48219ZM32.7108 26.3366C27.8505 31.2153 19.9633 31.2153 15.103 26.3366L7.14117 18.3542C6.67219 17.8859 6.67219 17.1236 7.14117 16.6445L15.0924 8.67297C19.9526 3.79423 27.8399 3.79423 32.7001 8.67297C37.5711 13.5517 37.5711 21.4579 32.7108 26.3366Z" fill="#4FC4F9"/>
<path d="M49.4444 16.3503L44.6801 11.4825C44.3923 11.1884 43.9126 11.4607 44.0086 11.8636C44.8293 15.5771 44.8293 19.454 44.0086 23.1675C43.9233 23.5704 44.4029 23.8317 44.6801 23.5486L49.4444 18.6808C50.0732 18.0274 50.0732 16.9928 49.4444 16.3503Z" fill="#4FC4F9"/>
<path d="M23.9598 26.0426C28.569 26.0426 32.3054 22.2249 32.3054 17.5157C32.3054 12.8064 28.569 8.98877 23.9598 8.98877C19.3507 8.98877 15.6143 12.8064 15.6143 17.5157C15.6143 22.2249 19.3507 26.0426 23.9598 26.0426Z" fill="#4FC4F9"/>
<path d="M59.4229 16.0124C59.4229 15.1055 59.5759 14.3237 59.882 13.667C60.188 13.0102 60.6164 12.4474 61.1674 11.9783C61.7183 11.5092 62.361 11.1652 63.0956 10.9463C63.8302 10.7274 64.6567 10.6023 65.5137 10.6023C66.5849 10.6023 67.5337 10.7899 68.3907 11.1652C69.2171 11.5405 69.921 12.0408 70.4413 12.6975C70.9616 12.0408 71.6351 11.5405 72.4615 11.1652C73.2878 10.7899 74.2366 10.6023 75.3078 10.6023C76.1649 10.6023 76.9606 10.7274 77.6952 10.9463C78.4297 11.1652 79.0725 11.5092 79.6234 11.9783C80.1743 12.4474 80.6028 13.0102 80.9089 13.667C81.215 14.3237 81.3681 15.1055 81.3681 16.0124V24.9562H77.0524V17.2632C77.0524 16.3251 76.8689 15.6684 76.5016 15.2618C76.1343 14.8553 75.614 14.6677 74.91 14.6677C74.2061 14.6677 73.655 14.9178 73.1959 15.3869C72.7674 15.856 72.5532 16.6065 72.5532 17.6698V24.9874H68.2377V17.6698C68.2377 16.6378 68.0234 15.8873 67.5949 15.3869C67.1664 14.9178 66.6154 14.6677 65.9114 14.6677C65.2381 14.6677 64.6873 14.8553 64.32 15.2618C63.922 15.6684 63.7383 16.3251 63.7383 17.2632V24.9562H59.4229V16.0124Z" fill="#4FC4F9"/>
<path d="M84.9492 7.25615C84.9492 6.56816 85.1635 5.97399 85.6226 5.50491C86.0817 5.03583 86.6326 4.78564 87.3366 4.78564C88.0099 4.78564 88.5915 5.03583 89.0506 5.50491C89.5097 5.97399 89.7545 6.56816 89.7545 7.25615C89.7545 7.94412 89.5097 8.5383 89.0506 9.00738C88.5915 9.47646 88.0099 9.69536 87.3366 9.69536C86.6632 9.69536 86.0817 9.47646 85.6226 9.00738C85.1941 8.50702 84.9492 7.94412 84.9492 7.25615ZM85.1941 12.9476C85.1941 12.2284 85.4083 11.728 85.8062 11.4466C86.2041 11.1651 86.755 11.0088 87.4284 11.0088C87.9181 11.0088 88.3466 11.0713 88.7445 11.1964C89.1424 11.3215 89.3872 11.3841 89.5097 11.4153V24.9874H85.1941V12.9476Z" fill="#4FC4F9"/>
<path d="M93.4883 6.72452C93.4883 6.00526 93.7025 5.50491 94.1004 5.22346C94.4983 4.94201 95.0492 4.78564 95.7226 4.78564C96.2123 4.78564 96.6408 4.84819 97.0387 4.97328C97.4366 5.09837 97.6814 5.16091 97.8039 5.19218V24.9561H93.4883V6.72452Z" fill="#4FC4F9"/>
<path d="M105.7 24.9561C105.149 23.9554 104.598 22.9234 104.078 21.8602C103.558 20.7969 103.068 19.7962 102.64 18.8893C102.211 17.9825 101.844 17.1694 101.568 16.5439C101.293 15.8872 101.109 15.4807 101.017 15.2931C100.864 14.9178 100.711 14.5113 100.558 14.0734C100.375 13.6044 100.313 13.1978 100.313 12.8538C100.313 12.3535 100.497 11.9157 100.864 11.5404C101.232 11.1964 101.752 11.0088 102.487 11.0088C103.068 11.0088 103.527 11.0713 103.895 11.1964C104.262 11.3215 104.445 11.3841 104.507 11.4153C104.813 12.3222 105.119 13.2291 105.486 14.136C105.823 15.0429 106.159 15.8872 106.465 16.669C106.772 17.4508 107.047 18.1388 107.322 18.733C107.567 19.3272 107.751 19.7337 107.873 19.9839C107.996 19.7337 108.149 19.3271 108.394 18.7643C108.639 18.2014 108.883 17.5446 109.159 16.8567C109.434 16.1687 109.71 15.4494 109.985 14.7614C110.261 14.0735 110.506 13.448 110.689 12.9789C110.812 12.6975 110.904 12.4473 111.057 12.1971C111.179 11.947 111.363 11.7593 111.546 11.5717C111.73 11.3841 111.975 11.259 112.22 11.1651C112.495 11.0713 112.832 11.0401 113.199 11.0401C113.566 11.0401 113.872 11.0713 114.178 11.1651C114.454 11.2277 114.729 11.3215 114.944 11.4153C115.158 11.5091 115.342 11.603 115.464 11.6655C115.586 11.7593 115.678 11.7906 115.709 11.8219C115.648 12.1658 115.464 12.6349 115.189 13.3229C114.913 13.9796 114.607 14.7614 114.24 15.6058C113.872 16.4501 113.475 17.357 113.046 18.2952C112.618 19.2333 112.189 20.1402 111.791 21.0158C111.393 21.8915 110.995 22.6733 110.628 23.3925C110.261 24.0805 109.985 24.6434 109.802 25.0187H105.7V24.9561Z" fill="#4FC4F9"/>
<path d="M122.259 18.4515C122.259 20.3591 123.085 21.2973 124.769 21.2973C126.452 21.2973 127.279 20.3591 127.279 18.4515V12.9477C127.279 12.2284 127.493 11.728 127.891 11.4466C128.289 11.1651 128.839 11.0088 129.513 11.0088C130.003 11.0088 130.431 11.0713 130.829 11.1964C131.227 11.3215 131.472 11.3841 131.594 11.4153V19.2646C131.594 20.2966 131.41 21.1722 131.074 21.9227C130.737 22.6733 130.247 23.2987 129.635 23.799C129.023 24.2994 128.319 24.6747 127.462 24.9248C126.636 25.175 125.718 25.3001 124.769 25.3001C123.789 25.3001 122.902 25.175 122.075 24.9248C121.249 24.6747 120.514 24.2994 119.902 23.799C119.29 23.2987 118.831 22.6733 118.464 21.9227C118.127 21.1722 117.943 20.2653 117.943 19.2646V12.9477C117.943 12.2284 118.158 11.728 118.556 11.4466C118.953 11.1651 119.504 11.0088 120.178 11.0088C120.667 11.0088 121.096 11.0713 121.494 11.1964C121.892 11.3215 122.137 11.3841 122.259 11.4153V18.4515Z" fill="#4FC4F9"/>
<path d="M135.971 20.7032C136.124 20.8282 136.338 20.9533 136.675 21.1097C137.012 21.2661 137.41 21.4224 137.869 21.5475C138.328 21.6726 138.848 21.7977 139.43 21.8915C140.011 21.9853 140.623 22.0479 141.266 22.0479C142.001 22.0479 142.552 21.9853 142.919 21.829C143.286 21.7039 143.47 21.4537 143.47 21.1097C143.47 20.7344 143.317 20.4843 143.011 20.3592C142.705 20.2341 142.215 20.109 141.542 20.0152L140.134 19.8588C139.43 19.765 138.756 19.6399 138.114 19.4523C137.471 19.2647 136.889 19.0145 136.4 18.6705C135.91 18.3265 135.512 17.8887 135.237 17.3571C134.961 16.8254 134.808 16.1687 134.808 15.3556C134.808 14.6677 134.93 14.0422 135.175 13.4793C135.42 12.9164 135.787 12.4161 136.308 11.9783C136.828 11.5405 137.501 11.1965 138.297 10.9776C139.093 10.7274 140.072 10.6023 141.174 10.6023C142.307 10.6023 143.256 10.6648 144.082 10.8212C144.908 10.9776 145.582 11.1965 146.194 11.5092C146.531 11.6968 146.806 11.9157 147.02 12.1659C147.235 12.4161 147.326 12.7601 147.326 13.1353C147.326 13.4168 147.265 13.6982 147.143 13.9171C147.02 14.136 146.898 14.3549 146.745 14.5113C146.592 14.6677 146.439 14.7928 146.316 14.8866C146.194 14.9804 146.102 15.0429 146.071 15.0429C146.01 14.9804 145.857 14.8866 145.643 14.7302C145.398 14.5738 145.092 14.4488 144.664 14.2924C144.266 14.1673 143.776 14.0422 143.225 13.9171C142.674 13.792 142.031 13.7608 141.297 13.7608C140.501 13.7608 139.919 13.8546 139.613 14.0422C139.307 14.2299 139.154 14.48 139.154 14.7927C139.154 15.1055 139.307 15.3244 139.583 15.4495C139.858 15.5745 140.287 15.6996 140.868 15.7935L143.317 16.1374C143.929 16.2313 144.51 16.3564 145.061 16.544C145.612 16.7316 146.133 16.9818 146.561 17.2945C146.99 17.6385 147.357 18.045 147.602 18.5454C147.847 19.0457 148 19.6712 148 20.4217C148 21.954 147.418 23.1424 146.286 24.018C145.153 24.8623 143.562 25.3002 141.542 25.3002C140.501 25.3002 139.552 25.2376 138.726 25.0812C137.899 24.9249 137.226 24.7685 136.614 24.5809C136.032 24.3933 135.543 24.1744 135.175 23.9867C134.808 23.7678 134.563 23.6115 134.41 23.5176L135.971 20.7032Z" fill="#4FC4F9"/>
</svg>
